icons/lines/airplane-square.svg

<svg xmlns="http://www.w3.org/2000/svg" width="24" height="24" viewBox="0 0 24 24" fill="none" stroke="currentColor" stroke-width="2" stroke-linecap="round" stroke-linejoin="round" >
  <path d="M9.86002 19L11.54 17.58C11.79 17.37 12.21 17.37 12.47 17.58L14.14 19C14.53 19.2 15.01 19 15.15 18.58L15.47 17.62C15.55 17.39 15.47 17.05 15.3 16.88L13.66 15.23C13.54 15.11 13.45 14.88 13.45 14.72V12.87C13.45 12.45 13.76 12.25 14.15 12.41L17.5 13.85C18.05 14.09 18.51 13.79 18.51 13.19V12.26C18.51 11.78 18.15 11.22 17.7 11.03L13.76 9.32999C13.59 9.25999 13.46 9.04999 13.46 8.86999V6.79999C13.46 6.11999 12.96 5.31999 12.36 5.00999C12.14 4.89999 11.89 4.89999 11.67 5.00999C11.06 5.30999 10.57 6.11999 10.57 6.79999V8.86999C10.57 9.04999 10.43 9.25999 10.27 9.32999L6.33002 11.03C5.89002 11.22 5.52002 11.78 5.52002 12.26V13.19C5.52002 13.79 5.97002 14.09 6.53002 13.85L9.88002 12.41C10.26 12.24 10.58 12.45 10.58 12.87V14.72C10.58 14.89 10.48 15.12 10.37 15.23L8.70002 16.87C8.53002 17.04 8.45002 17.38 8.53002 17.61L8.85002 18.57C8.99002 19 9.46002 19.2 9.86002 19Z"/>
  <path d="M9 22H15C20 22 22 20 22 15V9C22 4 20 2 15 2H9C4 2 2 4 2 9V15C2 20 4 22 9 22Z"/>
  </svg>

<svg xmlns="http://www.w3.org/2000/svg" width="24" height="24" viewBox="0 0 24 24" fill="none" stroke="currentColor" stroke-width="2" stroke-linecap="round" stroke-linejoin="round">
  <path d="M11.54 17.58a.765.765 0 0 1 .93 0L14.14 19a.722.722 0 0 0 1.01-.42l.32-.96a.8.8 0 0 0-.17-.74l-1.64-1.65a.83.83 0 0 1-.21-.51v-1.85c0-.42.31-.62.7-.46l3.35 1.44c.55.24 1.01-.06 1.01-.66v-.93c0-.48-.36-1.04-.81-1.23l-3.94-1.7a.54.54 0 0 1-.3-.46V6.8c0-.68-.5-1.48-1.1-1.79a.76.76 0 0 0-.69 0c-.61.3-1.1 1.11-1.1 1.79v2.07a.55.55 0 0 1-.3.46l-3.94 1.7c-.44.19-.81.75-.81 1.23v.93c0 .6.45.9 1.01.66l3.35-1.44c.38-.17.7.04.7.46v1.85a.84.84 0 0 1-.21.51L8.7 16.87a.8.8 0 0 0-.17.74l.32.96a.717.717 0 0 0 1.01.43z" />
  <path d="M15 22c5 0 7-2 7-7V9c0-5-2-7-7-7H9C4 2 2 4 2 9v6c0 5 2 7 7 7z" />
</svg>
